!!!OTL:
!!!ONR: No. 9
!! From Madeleine Beland,
!! "Chansons de Voyageurs, Coureurs de Bois et Forestiers"
!! Quebec: Les Presses de l'universite/ Laval, 1982
!! ISBN 2-7637-6942-X
**kern
*clefG2
*k[f#]
*M6/8
8d
=
4d
8d
qd
4e
8d
=
qd
[4.g
4g]
8d
=
4.e
4c
8r
=
4r
8c
4e
8g
=
4f#
8e
4d
8c#
=
4.d;
4r
8d
=
4d
8d
4e
8d
=
qd
[4.g
4g]
8d
=
(4e
8d)
4c
8r
=
4r
8r
4e
8g
=
4f#
8e
4d
8c#
*M9/8
=
4.d
4r
8r
4d
8d
=
4e
8d
qd
[4.g
4g]
8a
=
4g
8f#
4e
8f#
8g
8f#
8e
*M6/8
=
qe
4.a
8.g
8.f#
=
4.e
4r
8r
=
4d
8d
4e
8d
=
qd
[4.g
4g]
8d
=
(4e
8d)
4c
8r
=
4r
8r
4e
8g
=
4f#
8e
4d
8c#
=
4.d
4r
==
*-
